img/logo.svg

<svg width="108" height="35" viewBox="0 0 108 35" fill="none" xmlns="http://www.w3.org/2000/svg">
<g clip-path="url(#clip0_14_1274)">
<path d="M30.1064 24.85C30.1064 27.6569 29.1877 30.008 27.3502 31.9035C25.5146 33.7984 23.2315 34.7461 20.5007 34.7468H12.4517V21.3165H17.6471V29.8539H20.5007C21.876 29.8539 22.9966 29.3962 23.8624 28.481C24.7296 27.5689 25.1626 26.3586 25.1613 24.85C25.1613 23.3414 24.7283 22.1298 23.8624 21.2152C22.9972 20.3013 21.8766 19.8443 20.5007 19.8443H9.59807C8.07159 19.8669 6.56211 19.5212 5.19722 18.8366C5.10935 18.7926 5.02148 18.7448 4.93554 18.697C4.12697 18.2435 3.38997 17.6727 2.74852 17.003C1.00697 15.2206 0.0220231 12.8327 0 10.3395L0 9.57267C0.0764283 6.9283 0.992629 4.70142 2.7486 2.89203C4.58414 0.99723 6.8673 0.0494953 9.59807 0.0488281H17.6471V13.481H12.4517V4.94177H9.59807C8.22283 4.94177 7.10226 5.39875 6.23639 6.3127C5.36921 7.22671 4.93562 8.43767 4.93562 9.94559C4.93562 11.4561 5.36921 12.6677 6.23639 13.5804C7.10163 14.4944 8.22219 14.952 9.59807 14.9533H20.5007C23.2321 14.9533 25.5153 15.8997 27.3502 17.7927C29.1877 19.6875 30.1064 22.04 30.1064 24.85Z" fill="#4A4A4A"/>
<path d="M48.7819 0H44.1383L39.2178 14.9261H43.3502L43.9892 12.7724H48.9522L49.5913 14.9261H53.7025L48.7819 0ZM44.969 9.4888L46.4601 4.41394L47.9725 9.4888H44.969Z" fill="#E97522"/>
<path d="M60.8599 1.24557e-08H54.7891V9.90914H58.7084V3.68889H60.8599C61.3314 3.67211 61.8011 3.75561 62.2381 3.93388C62.675 4.11216 63.0692 4.38115 63.3947 4.72312C64.0476 5.41269 64.3742 6.32601 64.3745 7.46306C64.3745 8.60042 64.0479 9.51373 63.3947 10.203C63.0692 10.545 62.675 10.814 62.2381 10.9923C61.8012 11.1706 61.3314 11.2541 60.8599 11.2372H54.7891V14.9261H60.8599C62.9186 14.9261 64.6404 14.2118 66.0252 12.7831C67.41 11.3545 68.1023 9.58111 68.1021 7.46306C68.1021 5.34512 67.4098 3.57176 66.0252 2.14299C64.6406 0.714222 62.9189 -0.000108915 60.8599 1.24557e-08Z" fill="#E97522"/>
<path d="M75.9409 1.24557e-08H69.8701V3.68889H75.9409C76.4125 3.67211 76.8822 3.75561 77.3191 3.93388C77.7561 4.11215 78.1503 4.38115 78.4757 4.72312C79.1287 5.41275 79.4553 6.32606 79.4555 7.46306C79.4555 8.60042 79.1289 9.51373 78.4757 10.203C78.1503 10.545 77.7561 10.814 77.3192 10.9923C76.8822 11.1706 76.4125 11.254 75.9409 11.2372H73.7895V5.01698H69.8701V14.9261H75.9409C77.9997 14.9261 79.7214 14.2118 81.1062 12.7831C82.491 11.3545 83.1833 9.58111 83.1831 7.46306C83.1831 5.34512 82.4908 3.57176 81.1062 2.14299C79.7217 0.714222 77.9999 -0.000108915 75.9409 1.24557e-08Z" fill="#E97522"/>
<path d="M45.0115 19.7538C45.7094 19.7354 46.404 19.8559 47.0549 20.1085C47.7058 20.3611 48.3001 20.7406 48.8033 21.225C49.8256 22.2061 50.3368 23.4571 50.3369 24.9781C50.3369 26.4994 49.8257 27.7503 48.8033 28.7308C48.3002 29.2153 47.7059 29.5949 47.0549 29.8475C46.404 30.1001 45.7094 30.2206 45.0115 30.2021H43.0304V34.6801H39.2178V19.7538H45.0115ZM45.0115 26.5772C45.2121 26.5815 45.4113 26.5439 45.5965 26.4668C45.7817 26.3897 45.9489 26.2747 46.0872 26.1294C46.2333 25.9765 46.3473 25.7959 46.4224 25.5981C46.4974 25.4003 46.532 25.1895 46.5242 24.9781C46.5327 24.7682 46.4984 24.5588 46.4233 24.3626C46.3481 24.1664 46.2338 23.9877 46.0872 23.8373C45.9473 23.6948 45.7796 23.5824 45.5946 23.5072C45.4096 23.432 45.2112 23.3955 45.0115 23.4H43.0304V26.5772H45.0115Z" fill="#B1B1B1"/>
<path d="M59.8374 19.7539H63.6289V34.6803H59.8374V28.9444H55.6408V34.6803H51.8281V19.7539H55.6408V25.2765H59.8374V19.7539Z" fill="#B1B1B1"/>
<path d="M78.7852 32.75C77.2976 34.1927 75.3075 34.9994 73.2363 34.9994C71.165 34.9994 69.175 34.1927 67.6874 32.75C66.9495 32.0334 66.3671 31.1721 65.9768 30.22C65.5865 29.2679 65.3965 28.2454 65.4187 27.2165C65.3965 26.1876 65.5865 25.1651 65.9769 24.213C66.3672 23.2609 66.9495 22.3996 67.6874 21.683C69.175 20.2403 71.165 19.4336 73.2363 19.4336C75.3076 19.4336 77.2976 20.2403 78.7852 21.683C79.523 22.3997 80.1052 23.261 80.4956 24.2131C80.8859 25.1652 81.0759 26.1876 81.0538 27.2165C81.076 28.2454 80.886 29.2678 80.4957 30.2199C80.1053 31.172 79.523 32.0333 78.7852 32.75ZM70.3606 30.1272C71.0372 30.8493 71.9443 31.3125 72.9255 31.437C73.9067 31.5616 74.9006 31.3396 75.7359 30.8094C76.5712 30.2792 77.1956 29.474 77.5015 28.5325C77.8074 27.5909 77.7757 26.5721 77.4119 25.6514C77.048 24.7308 76.3748 23.966 75.5082 23.4889C74.6416 23.0117 73.6358 22.8521 72.6643 23.0375C71.6927 23.2229 70.8162 23.7417 70.1857 24.5045C69.5552 25.2673 69.2102 26.2264 69.2102 27.2165C69.1922 27.7547 69.2851 28.2909 69.483 28.7916C69.6809 29.2924 69.9796 29.747 70.3606 30.1272Z" fill="#B1B1B1"/>
<path d="M92.3005 19.7539V23.4427H88.6152V34.6803H84.8025V23.4427H81.1172V19.7539H92.3005Z" fill="#B1B1B1"/>
<path d="M105.732 32.75C104.244 34.1927 102.254 34.9994 100.183 34.9994C98.1113 34.9994 96.1213 34.1927 94.6337 32.75C93.8958 32.0334 93.3134 31.1721 92.9231 30.22C92.5327 29.2679 92.3428 28.2454 92.365 27.2165C92.3428 26.1876 92.5328 25.1651 92.9232 24.213C93.3135 23.2609 93.8958 22.3996 94.6336 21.683C96.1213 20.2403 98.1113 19.4336 100.183 19.4336C102.254 19.4336 104.244 20.2403 105.731 21.683C106.469 22.3997 107.052 23.261 107.442 24.2131C107.832 25.1652 108.022 26.1876 108 27.2165C108.022 28.2454 107.832 29.2678 107.442 30.2199C107.052 31.172 106.469 32.0333 105.732 32.75ZM97.3068 30.1272C97.9835 30.8493 98.8906 31.3125 99.8718 31.437C100.853 31.5616 101.847 31.3396 102.682 30.8094C103.517 30.2792 104.142 29.474 104.448 28.5325C104.754 27.5909 104.722 26.5721 104.358 25.6514C103.994 24.7308 103.321 23.966 102.454 23.4889C101.588 23.0117 100.582 22.8521 99.6106 23.0375C98.639 23.2229 97.7625 23.7417 97.132 24.5045C96.5015 25.2673 96.1565 26.2264 96.1565 27.2165C96.1385 27.7547 96.2313 28.2909 96.4293 28.7916C96.6272 29.2924 96.9259 29.747 97.3068 30.1272Z" fill="#B1B1B1"/>
</g>
<defs>
<clipPath id="clip0_14_1274">
<rect width="108" height="35" fill="white"/>
</clipPath>
</defs>
</svg>

<svg width="108" height="35" fill="none" xmlns="http://www.w3.org/2000/svg"><g clip-path="url(#clip0_14_1274)"><path d="M30.106 24.85c0 2.807-.918 5.158-2.756 7.053-1.835 1.895-4.119 2.843-6.85 2.844h-8.048v-13.43h5.195v8.537h2.854c1.375 0 2.496-.458 3.361-1.373.868-.912 1.3-2.122 1.3-3.631s-.434-2.72-1.3-3.635c-.865-.914-1.985-1.37-3.361-1.37H9.598a9.502 9.502 0 01-4.4-1.008 9.386 9.386 0 01-2.449-1.834A9.657 9.657 0 010 10.339v-.766C.076 6.928.993 4.7 2.749 2.892 4.584.997 6.867.049 9.599.049h8.048V13.48h-5.195V4.94H9.598c-1.375 0-2.496.458-3.362 1.372-.867.914-1.3 2.125-1.3 3.633 0 1.51.433 2.722 1.3 3.634.866.914 1.986 1.372 3.362 1.373h10.903c2.731 0 5.014.947 6.85 2.84 1.837 1.895 2.755 4.247 2.755 7.057z" fill="#4A4A4A"/><path d="M48.782 0h-4.644l-4.92 14.926h4.132l.64-2.154h4.962l.64 2.154h4.11L48.782 0zm-3.813 9.489l1.491-5.075 1.512 5.075H44.97zM60.86 0h-6.07v9.91h3.918V3.688h2.152a3.335 3.335 0 012.535 1.034c.653.69.98 1.603.98 2.74 0 1.137-.327 2.05-.98 2.74a3.338 3.338 0 01-2.535 1.034h-6.07v3.69h6.07c2.059 0 3.78-.715 5.165-2.144 1.385-1.428 2.077-3.202 2.077-5.32 0-2.118-.692-3.891-2.077-5.32C64.641.714 62.92 0 60.86 0zm15.08 0h-6.07v3.689h6.07a3.334 3.334 0 012.536 1.034c.653.69.98 1.603.98 2.74 0 1.137-.327 2.05-.98 2.74a3.337 3.337 0 01-2.535 1.034H73.79v-6.22h-3.92v9.91h6.07c2.06 0 3.781-.715 5.166-2.144 1.385-1.428 2.077-3.202 2.077-5.32 0-2.118-.692-3.891-2.077-5.32C79.722.714 78 0 75.941 0z" fill="#E97522"/><path d="M45.011 19.754a5.264 5.264 0 013.792 1.471c1.023.981 1.534 2.232 1.534 3.753s-.511 2.772-1.534 3.753a5.268 5.268 0 01-3.791 1.471H43.03v4.478h-3.812V19.754h5.793zm0 6.823a1.442 1.442 0 001.076-.448 1.582 1.582 0 00.437-1.15 1.547 1.547 0 00-.437-1.142 1.462 1.462 0 00-1.076-.437h-1.98v3.177h1.98zm14.826-6.823h3.792V34.68h-3.792v-5.736h-4.196v5.736h-3.813V19.754h3.813v5.522h4.196v-5.522zM78.785 32.75a7.97 7.97 0 01-11.098 0 7.484 7.484 0 01-2.268-5.534 7.491 7.491 0 012.268-5.533 7.97 7.97 0 0111.098 0 7.487 7.487 0 012.269 5.534 7.492 7.492 0 01-2.269 5.533zm-8.424-2.623a4.248 4.248 0 007.14-1.595 4.26 4.26 0 00-1.993-5.043 4.246 4.246 0 00-5.322 1.015 4.257 4.257 0 00-.976 2.712 3.928 3.928 0 001.15 2.911zM92.3 19.754v3.689h-3.685V34.68h-3.813V23.443h-3.685v-3.69H92.3zm13.432 12.996a7.972 7.972 0 01-11.098 0 7.484 7.484 0 01-2.269-5.534 7.491 7.491 0 012.269-5.533 7.97 7.97 0 0111.097 0A7.48 7.48 0 01108 27.217a7.5 7.5 0 01-2.268 5.533zm-8.425-2.623a4.248 4.248 0 007.141-1.595 4.257 4.257 0 00-1.994-5.043 4.244 4.244 0 00-5.322 1.015 4.257 4.257 0 00-.976 2.712 3.926 3.926 0 001.15 2.911z" fill="#B1B1B1"/></g><defs><clipPath id="clip0_14_1274"><path fill="#fff" d="M0 0h108v35H0z"/></clipPath></defs></svg>
